usr/share/icons/biglinux-icons-material-dark/scalable/mimetypes/text-x-adasrc.svg

<svg width="24" height="24" viewBox="0 0 24 24" fill="none" xmlns="http://www.w3.org/2000/svg">
<rect x="1" y="1" width="22" height="22" rx="6.6" fill="url(#paint0_radial_204_2)"/>
<path d="M5 17.0002V16.0002H15.0001V17.0002H5ZM5 14.0001V13.0001H19V14.0001H5ZM5 11.0001V10.0001H19V11.0001H5ZM5 8.00001V7H19V8.00001H5Z" fill="#46AA97"/>
<defs>
<radialGradient id="paint0_radial_204_2" cx="0" cy="0" r="1" gradientUnits="userSpaceOnUse" gradientTransform="translate(17.5 1) rotate(116.565) scale(24.5967)">
<stop stop-color="#F4F4F4"/>
<stop offset="1" stop-color="#BBBBBB"/>
</radialGradient>
</defs>
</svg>

<svg xmlns="http://www.w3.org/2000/svg" width="24" height="24" fill="none">
<rect width="22" height="22" x="1" y="1" opacity="0.85" fill="url(#a)" rx="6.6"/>
<path fill="#46AA97" d="M5 17v-1h10v1zm0-3v-1h14v1zm0-3v-1h14v1zm0-3V7h14v1z"/>
<defs>
<linearGradient id="a" gradientTransform="scale(33)" gradientUnits="userSpaceOnUse">
<stop stop-color="#F4F4F4"/>
<stop offset="1" stop-color="#DDDBBB"/>
</linearGradient>
</defs>
</svg>
